X: 154
T: Shan dan zi liu ma The horse of deep violet like sandalwood colour
L: 1/8
M: 2/4
K: C
A A A E/ G/ [I:setbarnb 1]| 
A2A E/ G/ | 
A4 | 
A/ c/ C D E | 
D2E A | 
A,4 | 
A A/ G/ A A | 
d2e/ g/ e | 
d4 | 
e E E G | 
A2d c/ e/ | 
A4 |]

@@@ Tune index: 8822
